svgs/revanced_youtube_music.svg

<svg xmlns="http://www.w3.org/2000/svg" viewBox="0 0 192 192"><path d="M89.757 163.715c-11.912-3.142-22.941-9.357-31.599-17.804-4.466-4.357-7.772-8.484-7.348-9.171.424-.687 6.357-4.459 13.183-8.383 6.826-3.924 13.149-7.612 14.05-8.195 1.276-.826.876-2.531-1.809-7.707-6.039-11.639-5.067-27.008 2.301-36.374 1.435-1.825 2.402-3.47 2.147-3.655-.255-.185-6.207-3.58-13.228-7.544-19.896-11.233-18.982-9.502-9.772-18.515 14.352-14.043 35.823-21.808 54.965-19.879 58.189 5.867 84.086 74.806 44.045 117.251-17.305 18.344-43.495 26.16-66.935 19.976Zm28.659-35.714c8.24-2.808 17.279-11.847 20.087-20.087 5.509-16.167-.603-33.254-14.791-41.357-8.558-4.888-17.552-5.988-26.855-3.284-6.406 1.862-16.356 8.581-14.73 9.946.35.293 5.629 3.518 11.731 7.166 9.609 5.744 11.288 7.271 12.523 11.396 2.511 8.378-.323 12.528-13.909 20.368-6.389 3.688-11.617 6.924-11.617 7.191 0 1.004 10.96 7.915 14.624 9.221 5.777 2.059 15.982 1.81 22.937-.56ZM27.445 145.85C15.996 141.92 16 141.936 16 96.444c0-43.198.417-45.887 7.706-49.656 5.152-2.664 9.723-1.818 18.231 3.376 3.57 2.179 6.719 4.169 6.998 4.423.279.253-1.244 3.761-3.385 7.795-6.045 11.394-8.42 21.067-8.359 34.04.06 12.683 1.936 20.301 7.917 32.15 2.175 4.309 3.955 8.096 3.955 8.414 0 1.06-13.304 8.191-16.531 8.86-1.749.362-4.038.364-5.087.004Z"/></svg>

<svg
    xmlns="http://www.w3.org/2000/svg"
    viewBox="0 0 192 192"
    id="vector">
    <g id="group">
        <path
            id="path"
            d="M 89.757 163.715 C 77.845 160.573 66.816 154.358 58.158 145.911 C 53.692 141.554 50.386 137.427 50.81 136.74 C 51.234 136.053 57.167 132.281 63.993 128.357 C 70.819 124.433 77.142 120.745 78.043 120.162 C 79.319 119.336 78.919 117.631 76.234 112.455 C 70.195 100.816 71.167 85.447 78.535 76.081 C 79.97 74.256 80.937 72.611 80.682 72.426 C 80.427 72.241 74.475 68.846 67.454 64.882 C 47.558 53.649 48.472 55.38 57.682 46.367 C 72.034 32.324 93.505 24.559 112.647 26.488 C 170.836 32.355 196.733 101.294 156.692 143.739 C 139.387 162.083 113.197 169.899 89.757 163.715 Z M 118.416 128.001 C 126.656 125.193 135.695 116.154 138.503 107.914 C 144.012 91.747 137.9 74.66 123.712 66.557 C 115.154 61.669 106.16 60.569 96.857 63.273 C 90.451 65.135 80.501 71.854 82.127 73.219 C 82.477 73.512 87.756 76.737 93.858 80.385 C 103.467 86.129 105.146 87.656 106.381 91.781 C 108.892 100.159 106.058 104.309 92.472 112.149 C 86.083 115.837 80.855 119.073 80.855 119.34 C 80.855 120.344 91.815 127.255 95.479 128.561 C 101.256 130.62 111.461 130.371 118.416 128.001 Z M 27.445 145.85 C 15.996 141.92 16 141.936 16 96.444 C 16 53.246 16.417 50.557 23.706 46.788 C 28.858 44.124 33.429 44.97 41.937 50.164 C 45.507 52.343 48.656 54.333 48.935 54.587 C 49.214 54.84 47.691 58.348 45.55 62.382 C 39.505 73.776 37.13 83.449 37.191 96.422 C 37.251 109.105 39.127 116.723 45.108 128.572 C 47.283 132.881 49.063 136.668 49.063 136.986 C 49.063 138.046 35.759 145.177 32.532 145.846 C 30.783 146.208 28.494 146.21 27.445 145.85 Z"
            fill="#000000"
            stroke-width="12"/>
    </g>
</svg>
